**kern	**text
*clefG2	*
*k[f#]	*
*M4/4	*
*MM138	*
=1	=1
2r	.
8f#L	は
[8gJ	ん
16.gLL]	.
[32gK	n_hh
16gJJ]	.
16r	.
=2	=2
8eeL	け
[8ddJ	い
16ddKL]	.
8.dd'J	i_hh
8f#	は
4g	ち
8g	じゅ
=3	=3
8ee	う
4dd	ご
8dd	せ
16bLL	ん
16aJJ	ち
4g	が
8a	こ
=4	=4
8b'	の
4dd	て
[8cc	の
8cc]	.
4b	と
8cc	ど
=5	=5
8b'L	く
8aJ	きょ
4g	り
8f#	い
4.g'	ま
=6	=6
8eeL	か
[8ddJ	ら
32ddKLL]	.
16.ddJJ	a_hh
8r	.
8f#	ふ
4g	り
8g	ま
=7	=7
8ee	わ
4dd	し
8dd	ま
16bLL	す
16aJJ	の
4g	で
8a	は
=8	=8
8b	な
4dd	れ
8cc	て
8cc	い
4b	て
8cc	く
=9	=9
8bL	だ
8aJ	さ
[8gL	い
32gKL]	.
16.gJJ	i_hh
2r	.
=10	=10
1r	.
=11	=11
1r	.
=12	=12
1r	.
=13	=13
1r	.
=14	=14
1r	.
=15	=15
1r	.
=16	=16
1r	.
=17	=17
2r	.
8r	.
*clefF4	*
8DL	た
8G	だ
8AJ	ま
=18	=18
8GL	わ
8A'	る
8B	こ
8cJ	と
8BL	が
8c	た
8B	の
8AJ	し
=19	=19
8GL	か
8A	あ
8D	た
8D'J	a_hh
8r	.
8DL	こ
8G	の
8AJ	ま
=20	=20
8GL	ま
8A	で
8B	い
8cJ	た
8BL	か
8c'J	あ
[4B	た
=21	=21
8BL]	.
8B'J	a_hh
4r	.
8r	.
8DL	た
8G	だ
8AJ	ま
=22	=22
8GL	わ
8A'	る
8B	こ
8cJ	と
8BL	お
8c	つ
8B	ず
8AJ	け
=23	=23
8GL	て
8A	た
8D	ら
8DJ	a_hh
8r	.
8DL	と
8G	ま
8AJ	り
=24	=24
8GL	か
8A	た
8B	を
8cJ	わ
8BL	す
8c'J	れ
[4B	て
=25	=25
8BL]	.
8B'J	い
4A	た
8GL	ま
8G'J	a_hh
*clefG2	*
[4g	わ
=26	=26
8gL]	.
8dJ	り
4d	の
8d'L	o_hh
8c	な
*clefF4	*
8B	か
8cJ	ま
=27	=27
8BL	た
8AJ	ち
4G	が
8G'L	a_hh
8D	じ
8G	ぶ
8AJ	ん
=28	=28
8GL	よ
8A	り
8B	う
8cJ	ま
8BL	く
8c	ま
8B	わ
8AJ	れ
=29	=29
8GL	る
8A	の
8G	を
8G'J	o_hh
6G	し
12G'	i_hh
*clefG2	*
[4g	か
=30	=30
8gL]	.
8dJ	た
4d	な
8r	.
8cL	い
*clefF4	*
8B	と
8cJ	ひ
=31	=31
8BL	と
8AJ	こ
4G	と
8r	.
8DL	つ
8G	ぶ
8AJ	や
=32	=32
8GL	い
8A	て
8B	あ
8cJ	き
8BL	ら
8c'	め
8B	た
8BJ	a_hh
*clefG2	*
=33	=33
4d#X	ふ
4f#	り
4g	お
[4f#	し
=34	=34
4.f#]	.
8f#	て
8g'	い
[4.a	た
=35	=35
4a]	.
4b'	a_hh
8f#L	は
[8gJ	ん
16.gLL]	.
[32gK	n_hh
16gJJ]	.
16r	.
=36	=36
8eeL	け
[8ddJ	い
16ddKL]	.
8.dd'J	i_hh
8f#	に
4g	ひゃ
8g	く
=37	=37
8ee	ご
4dd	じゅ
8dd	せ
16bLL	ん
16aJJ	ち
4g	わ
8a	こ
=38	=38
8b'	の
4dd	て
[8cc	の
8cc]	.
4b	と
8cc	ど
=39	=39
8b'L	く
8aJ	きょ
4g	り
8f#	い
4.g'	ま
=40	=40
8eeL	か
[8ddJ	ら
32ddKLL]	.
16.ddJJ	a_hh
8r	.
8f#	う
4g	ご
8g	き
=41	=41
8ee	ま
4dd	わ
16ddLL	り
16ddJJ	ま
16bLL	す
16aJJ	の
4g	で
8a	は
=42	=42
8b	な
4dd	れ
8cc	て
8cc	い
4b	て
8cc	く
=43	=43
8bL	だ
8a	さ
8g	い
8g'J	i_hh
2r	.
=44	=44
1r	.
=45	=45
1r	.
=46	=46
1r	.
=47	=47
1r	.
=48	=48
1r	.
=49	=49
1r	.
=50	=50
1r	.
=51	=51
2r	.
8r	.
*clefF4	*
8DL	か
8G	ら
8AJ	ま
=52	=52
8GL	わ
8A'	る
8B	こ
8cJ	と
8BL	も
8c	た
8B	の
8AJ	し
=53	=53
8GL	か
8A'	あ
8D	た
8D'J	a_hh
8r	.
8DL	こ
8G	の
8AJ	ま
=54	=54
8GL	ま
8A	で
8B	い
8cJ	た
8BL	か
8cJ	あ
4B	た
=55	=55
4B'	a_hh
4r	.
8r	.
8DL	か
8G	ら
8AJ	ま
=56	=56
8GL	わ
8A'	る
8B	こ
8cJ	と
8BL	お
8c	つ
8B	ず
8AJ	け
=57	=57
8G'L	て
8A	た
8D	ら
8DJ	a_hh
8r	.
8DL	む
8G	く
8AJ	わ
=58	=58
8GL	れ
8A'	る
8B	と
8cJ	し
8BL	ん
8cJ	じ
[4B	て
=59	=59
8BL]	.
8B'J	い
4A	た
8GL	ま
8G'J	a_hh
*clefG2	*
[4g	わ
=60	=60
8gL]	.
8dJ	り
4d	の
8d'L	o_hh
8c	な
*clefF4	*
8B	か
8cJ	ま
=61	=61
8BL	た
8AJ	ち
4G	わ
8r	.
8DL	じ
8G	ぶ
8AJ	ん
=62	=62
8GL	よ
8A	り
8B	た
8cJ	か
8BL	く
8c	ま
8B	わ
8AJ	れ
=63	=63
8GL	る
8A	か
8G	ら
8G'J	a_hh
6G	し
12G'	i_hh
*clefG2	*
[4g	た
=64	=64
8gL]	.
8dJ	か
8.dL	ら
[16dJk	a_hh
32d]	.
32r	.
16r	.
8c	な
*clefF4	*
8BL	が
8cJ	め
=65	=65
8BL	る
8AJ	の
4G	u わ
8r	.
8DL	く
8G	び
8AJ	が
=66	=66
8GL	い
8A	た
8B	い
8cJ	と
8BL	す
8c	ね
8B	た
8BJ	a_hh
*clefG2	*
=67	=67
4d#X	ふ
4f#	り
4g	お
[4f#	し
=68	=68
4.f#]	.
8f#	て
8g	い
[4.a	た
=69	=69
4a]	.
4b'	a_hh
8f#L	は
[8gJ	ん
16.gLL]	.
[32gK	n_hh
16gJJ]	.
16r	.
=70	=70
8eeL	け
[8ddJ	い
16ddKL]	.
8.dd'J	i_hh
8f#	ご
4g	せ
8g	ん
=71	=71
8eeL	に
[8ddJ	ひゃ
16ddLL]	.
16ddJ	く
8ddJ	せ
16bLL	ん
16aJJ	ち
4g	わ
8a	こ
=72	=72
8b	の
4dd	て
[8cc	の
8cc]	.
4b	と
8cc	ど
=73	=73
8b'L	く
8aJ	きょ
4g	り
8f#	い
4.g'	ま
=74	=74
8eeL	か
[8ddJ	ら
32ddKLL]	.
16.ddJJ	a_hh
8r	.
8f#	と
4g	び
8g	ま
=75	=75
8ee	わ
4dd	り
8dd	ま
16bLL	す
16aJJ	の
4g	で
8a	は
=76	=76
8b	な
4dd	れ
8cc	て
8cc	い
4b	て
8cc	く
=77	=77
8bL	だ
8aJ	さ
[2.g	い
=78	=78
2g]	.
4b	は
8aL	あ
8bJ	あ
=79	=79
4b'	a_hh
4r	.
2r	.
=80	=80
1r	.
=81	=81
1r	.
=82	=82
1r	.
=83	=83
1r	.
=84	=84
1r	.
=85	=85
2r	.
8b	ど
4a	お
8a	で
=86	=86
8g	しょ
4d	お
8d	む
8b	か
4a	し
8a	の
=87	=87
8gL	じ
8b	ぶ
8b	ん
8dJ	が
8b	み
4a	た
[8g	ら
=88	=88
8gL]	.
8d	ほ
8d	め
8cJ	て
8c	く
4B	れ
[8g	る
=89	=89
8gL]	.
8aJ	か
4g	な
8b	め
4a	が
8a	ま
=90	=90
8g	わ
4d	り
8d	じ
8b	く
4a	も
8a	ぶ
=91	=91
8g	れ
4b	て
8g	る
8f#	け
[4.g	ど
=92	=92
2.g_	.
8.gL_	.
32gLL]	.
[32gJJJ	o_hh
=93	=93
4g]	.
4r	.
8f#L	に
[8gJ	じゅ
16.gLL]	.
[32gK	u_hh
16gJJ]	.
16r	.
=94	=94
8eeL	さ
[8ddJ	ん
16ddKL]	.
8.dd'J	n_hh
8f#	て
4g	ん
8g	よ
=95	=95
8ee	ん
4dd	ど
16ddLL	か
16ddJJ	た
16bLL	む
16aJJ	い
4g	て
8a	な
=96	=96
8b	が
4dd	め
[8cc	た
8cc]	.
4b	ま
8cc	ち
=97	=97
*^	*
8bL	2r	な
8aJ	.	み
4g	.	わ
6f#	8r	い
.	4.g'	つ
6r	.	.
6g'	.	u_hh
*v	*v	*
=98	=98
8eeL	の
[8ddJ	ま
32ddKLL]	.
16.ddJJ	a_hh
8r	.
8f#	に
4g	か
8g	み
=99	=99
8ee	た
4dd	こ
8dd	と
16bLL	の
16aJJ	な
4g	い
8a	い
=100	=100
8b	ろ
4dd	に
[8cc	そ
8cc]	.
4b	ま
8cc	あ
=101	=101
8bL	て
8aJ	い
4g	た
8f#L	は
[8gJ	ん
16.gLL]	.
[32gK	n_hh
16gJJ]	.
16r	.
=102	=102
8eeL	け
[8ddJ	い
16ddKL]	.
8.dd'J	i_hh
8f#	ろ
4g	く
8g	せ
=103	=103
8eeL	ん
8ddJ	さ
8ddL	ん
16ddL	びゃ
16ddJJ	く
16bLL	き
16aJJ	ろ
4g	わ
8a	こ
=104	=104
8b	の
4dd	て
[8cc	の
8cc]	.
4b	と
8cc	ど
=105	=105
8b'L	く
8aJ	きょ
4g	り
8f#	い
4.g'	ま
=106	=106
8eeL	な
[8ddJ	ら
32ddKLL]	.
16.ddJJ	a_hh
8r	.
8f#	で
4g	き
8g'	る
=107	=107
8ee	き
4dd	が
16ddLL	し
16ddJJ	ま
16bLL	す
16aJJ	の
4g	で
8a	は
=108	=108
8b	な
4dd	れ
8cc	て
8cc	い
4b	て
8cc	く
=109	=109
8bL	だ
8aJ	さ
4g	い
8f#L	は
[8gJ	ん
16.gLL]	.
[32gK	n_hh
16gJJ]	.
16r	.
=110	=110
8eeL	け
[8ddJ	い
16ddKL]	.
8.dd'J	i_hh
8f#	は
4g	ち
8g	じゅ
=111	=111
8ee	う
4dd	ご
8dd	せ
16bLL	ん
16aJJ	ち
4g	が
8a	こ
=112	=112
8b	の
4dd	て
[8cc	の
8cc]	.
4b	と
8cc	ど
=113	=113
8b'L	く
8aJ	きょ
4g	り
8f#	い
4g	つ
8g	の
=114	=114
8eeL	ひ
[8ddJ	か
32ddKLL]	.
16.ddJJ	a_hh
8r	.
8f#	ま
4g	わ
8g	り
=115	=115
8ee	つ
4dd	か
16ddLL	れ
16ddJJ	た
16bLL	と
16aJJ	き
4g	わ
8a	そ
=116	=116
8b	ば
4dd	に
[8cc	い
8cc]	.
4b	て
8cc	く
=117	=117
8bL	だ
8aJ	さ
8.gL	い
[16gJk	i_hh
16g]	.
16r	.
8r	.
4r	.
==	==
*-	*-
